src/_assets/sidebar/foot1.svg

<svg width="23" height="18" viewBox="0 0 23 18" fill="none" xmlns="http://www.w3.org/2000/svg">
<path d="M10.9731 7.16526C11.1795 7.17741 11.3267 7.19129 11.472 7.19129C12.906 7.19303 14.3418 7.20171 15.7758 7.18088C15.9804 7.17741 16.2317 7.06805 16.3807 6.92919C16.9388 6.40498 17.7465 6.35812 18.2669 6.85976C18.7802 7.35445 18.791 8.03662 18.2921 8.51395C17.7303 9.05031 16.955 9.01039 16.3825 8.46015C16.2263 8.31087 15.9535 8.20499 15.7328 8.20325C14.1049 8.18242 12.4753 8.19457 10.8475 8.18936C10.1188 8.18763 9.9806 8.04529 9.98239 7.35445C9.98239 6.54732 9.97342 5.73845 9.98598 4.93131C9.99495 4.36371 10.1924 4.1884 10.7793 4.18666C12.0194 4.18319 13.2596 4.17277 14.4998 4.1936C14.8659 4.20055 14.9592 4.07904 14.9485 3.74751C14.9251 3.08791 14.9413 2.42658 14.9413 1.73053H1.04634V4.16409C1.18633 4.17104 1.34427 4.18492 1.50041 4.18492C2.93441 4.18492 4.37021 4.18492 5.80422 4.18492C6.64236 4.18492 6.89542 4.44008 6.89542 5.24722C6.89183 7.72765 6.88465 10.2098 6.9044 12.6902C6.9044 12.8829 7.04798 13.1259 7.20412 13.2544C7.74793 13.7005 7.83767 14.3844 7.37462 14.8929C6.85773 15.4605 5.96395 15.49 5.42373 14.9572C4.94274 14.4816 5.00196 13.7647 5.51526 13.3047C5.68038 13.1572 5.83652 12.902 5.83832 12.6954C5.85267 10.3157 5.83473 7.93594 5.83114 5.55445C5.83114 5.19341 5.59782 5.17605 5.32322 5.17779C3.79948 5.17779 2.27574 5.17779 0.750205 5.17605C0.193833 5.17605 0.0341002 5.06843 0.0197422 4.53555C-0.00717899 3.48367 -0.00538424 2.43005 0.0179475 1.37816C0.028716 0.869582 0.199217 0.744606 0.814816 0.737663C2.05499 0.723776 3.29516 0.728984 4.53533 0.728984C8.0315 0.728984 11.5277 0.728984 15.022 0.732455C15.8548 0.732455 15.9858 0.862639 15.9858 1.65589C15.9858 2.57933 15.9876 3.50276 15.984 4.4262C15.9804 5.00248 15.801 5.17432 15.2123 5.17605C13.9578 5.17605 12.7014 5.1882 11.4469 5.17085C11.0736 5.16564 10.948 5.28888 10.9659 5.64471C10.9928 6.13247 10.9731 6.62369 10.9731 7.16352V7.16526Z" fill="#66A5FF"/>
<path d="M16.5665 11.3434H10.9723C10.9723 11.5187 10.9723 11.6732 10.9723 11.8277C10.9723 13.3864 10.9741 14.9451 10.9723 16.5038C10.9723 17.1166 10.8144 17.2797 10.179 17.2884C9.44676 17.2988 8.7145 17.2693 7.98225 17.2954C7.79021 17.3023 7.55689 17.4082 7.42228 17.5418C6.95565 18.007 6.36159 18.1389 5.79983 17.8404C5.34397 17.5974 5.07296 17.2225 5.11424 16.7156C5.15372 16.2296 5.47319 15.8963 5.92905 15.7141C6.44774 15.5075 6.96103 15.57 7.31639 15.9901C7.56227 16.2799 7.82431 16.3337 8.16531 16.3251C8.73066 16.3112 9.296 16.3216 9.92237 16.3216C9.92237 16.1376 9.92237 15.9848 9.92237 15.8321C9.92237 14.23 9.92057 12.6279 9.92416 11.0275C9.92416 10.4998 10.1 10.3279 10.6492 10.3262C12.7258 10.321 14.8041 10.321 16.8806 10.3262C17.4424 10.3262 17.6165 10.5067 17.6183 11.0656C17.6236 12.6383 17.62 14.2109 17.6218 15.7852C17.6218 15.9415 17.6218 16.0959 17.6218 16.2886H21.127C21.1377 16.1654 21.1593 16.0421 21.1593 15.9172C21.1593 11.4874 21.1593 7.05947 21.1647 2.62977C21.1647 2.37287 21.0929 2.21145 20.8613 2.06217C20.4037 1.76535 20.2745 1.2776 20.4557 0.762074C20.6262 0.293414 21.0767 0.00527436 21.6474 6.70205e-05C22.2505 -0.00514031 22.7297 0.293414 22.9109 0.786375C23.0832 1.25677 22.9486 1.78792 22.5035 2.04828C22.1625 2.2479 22.1661 2.51173 22.1679 2.81723C22.1733 7.27645 22.1769 11.7357 22.1805 16.1949C22.1805 17.0246 21.9167 17.2902 21.0695 17.2919C19.8599 17.2954 18.6484 17.2954 17.4388 17.2919C16.7909 17.2902 16.5719 17.0801 16.5719 16.4622C16.5683 14.775 16.5719 13.0878 16.5719 11.3434H16.5665Z" fill="#66A5FF"/>
</svg>

<svg xmlns="http://www.w3.org/2000/svg" width="23" height="18" fill="none"><path fill="#66A5FF" d="M10.973 7.165c.207.012.354.026.499.026 1.434.002 2.87.01 4.304-.01a1 1 0 00.605-.252c.558-.524 1.366-.57 1.886-.07.513.495.524 1.178.025 1.655-.562.536-1.337.496-1.91-.054a1.04 1.04 0 00-.65-.257c-1.627-.02-3.257-.008-4.884-.014-.73-.001-.867-.144-.866-.835 0-.807-.009-1.616.004-2.423.009-.567.206-.743.793-.744 1.24-.004 2.48-.014 3.72.007.367.007.46-.115.45-.446-.024-.66-.008-1.321-.008-2.017H1.046v2.433c.14.007.298.02.454.02h4.304c.838 0 1.091.256 1.091 1.063-.003 2.48-.01 4.963.01 7.443 0 .193.143.436.3.564.543.447.633 1.13.17 1.639a1.36 1.36 0 01-1.951.064c-.481-.475-.422-1.192.091-1.652.165-.148.322-.403.323-.61.015-2.38-.003-4.76-.007-7.14 0-.362-.233-.379-.508-.377L.75 5.176c-.556 0-.716-.108-.73-.64a66 66 0 01-.002-3.158C.028.87.199.745.815.738c1.24-.014 2.48-.009 3.72-.009q5.245 0 10.487.003c.833 0 .964.13.964.924q.002 1.385-.002 2.77c-.004.576-.183.748-.772.75-1.254 0-2.51.012-3.765-.005-.373-.005-.499.118-.481.474.027.487.007.979.007 1.519z"/><path fill="#66A5FF" d="M16.567 11.343h-5.595v.485q.002 2.337 0 4.676c0 .613-.158.776-.793.784-.732.01-1.465-.019-2.197.007a.92.92 0 00-.56.247c-.466.465-1.06.597-1.622.298-.456-.243-.727-.617-.686-1.124.04-.486.36-.82.815-1.002.519-.207 1.032-.144 1.387.276.246.29.508.344.85.335.565-.014 1.13-.003 1.756-.003v-.49q-.001-2.403.002-4.805c0-.527.176-.7.725-.7q3.116-.009 6.232 0c.561 0 .735.18.737.739.006 1.572.002 3.145.004 4.72v.503h3.505c.01-.124.032-.247.032-.372q-.002-6.644.006-13.287c0-.257-.072-.419-.304-.568-.457-.297-.587-.784-.405-1.3.17-.469.62-.757 1.191-.762.604-.005 1.083.293 1.264.786.172.47.038 1.002-.408 1.262-.34.2-.337.464-.335.77q.007 6.688.012 13.377c0 .83-.263 1.095-1.11 1.097q-1.816.005-3.631 0c-.648-.002-.867-.212-.867-.83-.004-1.687 0-3.374 0-5.119z"/></svg>
